X:1
T:Ringy Dang Doo
M:2/4
L:1/8
K:D
 D| FF DD| FF DF| FF GF| EE EE| EE CC| EE C C/2C/2| EE F E/2E/2| D/2D/2 DD D|\
 F/2F/2 FD D| FF DF| FF G F/2F/2| FE EF| GA B c/2c/2| dA FD| EE EE|\
 F/2F/2 ED||

